X: 21515
T: Kid On The Mountain, The
R: slip jig
M: 9/8
K: Eminor
|:EFE FEF G2F|E3 cBA BGE|EFE FED G2A|BAG FAG FED:|
|:BGB AFA G2D|GAB dge dBA|BGB AFA G2A|BAG FAG FED:|
|:gfg eBe e2f|gfg efg afd|gfg eBe e2a|bag fag fed:|
|:eBB e2f g2f|eBB efg afd|eBB e2f g2a|bag fag fed:|
|:edB dBA G2D|GAB dge dBA|edB dBA G2A|BAG FAG FED:|

